public/logos/VR.svg

<?xml version="1.0" encoding="UTF-8"?>
<svg xmlns="http://www.w3.org/2000/svg" xmlns:xlink="http://www.w3.org/1999/xlink" width="164.81pt" height="59pt" viewBox="0 0 164.81 59" version="1.1">
<defs>
<clipPath id="clip1">
  <path d="M 150 32 L 164.808594 32 L 164.808594 59 L 150 59 Z M 150 32 "/>
</clipPath>
</defs>
<g id="surface1">
<path style=" stroke:none;fill-rule:nonzero;fill:rgb(20.629883%,32.96051%,67.881775%);fill-opacity:1;" d="M 59.304688 11.449219 C 63.933594 11.449219 68.375 11.535156 72.8125 11.410156 C 74.726562 11.355469 75.308594 10.476562 75.394531 8.472656 C 75.503906 5.828125 74.699219 4.769531 72.039062 4.65625 C 68.671875 4.519531 65.296875 4.597656 61.921875 4.613281 C 61.0625 4.617188 60.203125 4.734375 59.304688 4.800781 C 59.304688 7.089844 59.304688 9.121094 59.304688 11.449219 Z M 59.28125 22.351562 C 64.398438 22.351562 69.34375 22.425781 74.285156 22.316406 C 76.144531 22.273438 76.769531 21.082031 76.664062 18.585938 C 76.570312 16.386719 76.125 15.765625 74.109375 15.738281 C 69.4375 15.679688 64.761719 15.746094 60.089844 15.785156 C 59.832031 15.789062 59.574219 16.019531 59.28125 16.160156 C 59.28125 18.140625 59.28125 20.085938 59.28125 22.351562 Z M 54 26.613281 C 54 17.660156 54 9.234375 54 0.605469 C 54.84375 0.523438 55.601562 0.386719 56.363281 0.382812 C 61.832031 0.363281 67.296875 0.347656 72.765625 0.378906 C 78.816406 0.414062 81.167969 3.179688 79.996094 9.066406 C 79.726562 10.425781 78.835938 11.660156 78.207031 12.996094 C 81.351562 15.160156 82.578125 19.957031 80.75 23.59375 C 79.636719 25.816406 77.71875 26.601562 75.355469 26.601562 C 70.484375 26.601562 65.613281 26.609375 60.742188 26.613281 C 58.574219 26.613281 56.410156 26.613281 54 26.613281 "/>
<path style=" stroke:none;fill-rule:nonzero;fill:rgb(20.629883%,32.96051%,67.881775%);fill-opacity:1;" d="M 124.433594 54.578125 C 128.429688 54.578125 132.097656 54.59375 135.761719 54.5625 C 136.34375 54.554688 136.925781 54.324219 137.503906 54.1875 C 139.855469 53.644531 141.515625 52.28125 141.855469 49.855469 C 142.152344 47.710938 142.367188 45.492188 142.152344 43.355469 C 141.789062 39.777344 140.023438 37.835938 136.460938 37.535156 C 132.539062 37.207031 128.566406 37.460938 124.433594 37.460938 C 124.433594 43.1875 124.433594 48.703125 124.433594 54.578125 Z M 119.15625 58.972656 C 119.15625 50.085938 119.15625 41.75 119.15625 33.507812 C 119.46875 33.316406 119.628906 33.128906 119.792969 33.128906 C 125.859375 33.113281 131.9375 32.972656 138 33.167969 C 142.464844 33.316406 146.855469 36.148438 147.160156 42.320312 C 147.28125 44.785156 147.316406 47.277344 147.109375 49.730469 C 146.65625 55.074219 143.160156 58.554688 137.808594 58.832031 C 133.335938 59.0625 128.847656 58.945312 124.367188 58.96875 C 122.699219 58.980469 121.027344 58.972656 119.15625 58.972656 "/>
<path style=" stroke:none;fill-rule:nonzero;fill:rgb(20.629883%,32.96051%,67.881775%);fill-opacity:1;" d="M 99.480469 22.746094 C 99.492188 22.664062 99.507812 22.582031 99.519531 22.5 C 99.917969 22.5 100.3125 22.511719 100.710938 22.5 C 107.34375 22.308594 110.511719 18.804688 110.027344 12.203125 C 109.769531 8.667969 107.710938 5.871094 104.242188 5.144531 C 101.757812 4.621094 99.082031 4.3125 96.59375 4.652344 C 90.152344 5.523438 87.601562 9.90625 88.984375 16.269531 C 89.609375 19.144531 91.476562 21.003906 94.246094 21.808594 C 95.941406 22.300781 97.730469 22.445312 99.480469 22.746094 Z M 98.921875 27.335938 C 96.957031 26.957031 94.457031 26.726562 92.117188 25.988281 C 85.253906 23.820312 83.070312 18.53125 83.433594 12.660156 C 83.90625 5.078125 88.476562 0.921875 96.101562 0.171875 C 99.308594 -0.144531 102.445312 -0.0507812 105.554688 0.6875 C 113.105469 2.472656 116.03125 8.25 115.164062 15.558594 C 114.515625 20.988281 111.910156 25.519531 103.882812 26.671875 C 102.410156 26.882812 100.933594 27.066406 98.921875 27.335938 "/>
<path style=" stroke:none;fill-rule:nonzero;fill:rgb(20.629883%,32.96051%,67.881775%);fill-opacity:1;" d="M 93.65625 43.765625 C 93.65625 45.289062 93.65625 46.449219 93.65625 47.957031 C 87.484375 48.386719 81.257812 47.863281 74.859375 48.257812 C 74.859375 50.324219 74.859375 52.25 74.859375 54.492188 C 81.324219 54.800781 87.753906 54.457031 94.339844 54.699219 C 94.339844 56.136719 94.339844 57.367188 94.339844 58.789062 C 86.085938 58.789062 77.96875 58.789062 69.519531 58.789062 C 69.292969 50.25 69.453125 41.75 69.425781 33.082031 C 77.773438 33.082031 85.882812 33.082031 94.203125 33.082031 C 94.203125 34.496094 94.203125 35.730469 94.203125 37.265625 C 87.820312 37.265625 81.496094 37.265625 75.128906 37.265625 C 74.28125 39.441406 74.78125 41.386719 74.65625 43.664062 C 78.023438 43.859375 81.183594 43.738281 84.332031 43.761719 C 87.386719 43.78125 90.445312 43.765625 93.65625 43.765625 "/>
<path style=" stroke:none;fill-rule:nonzero;fill:rgb(20.629883%,32.96051%,67.881775%);fill-opacity:1;" d="M 31.03125 10.332031 C 30.050781 10.386719 29.273438 10.402344 28.5 10.480469 C 26.988281 10.640625 25.953125 10.304688 25.265625 8.683594 C 24.539062 6.976562 22.917969 6 21.136719 5.472656 C 17.726562 4.460938 14.273438 4.328125 10.863281 5.394531 C 7.105469 6.570312 5.40625 9.113281 5.363281 13.300781 C 5.320312 17.75 6.925781 20.382812 10.695312 21.652344 C 14.179688 22.828125 17.746094 22.785156 21.28125 21.804688 C 23.078125 21.304688 24.679688 20.296875 25.371094 18.574219 C 25.992188 17.015625 26.960938 16.730469 28.367188 16.855469 C 29.148438 16.925781 29.933594 16.949219 30.878906 17 C 31.414062 19.152344 30.257812 20.703125 29.210938 22.195312 C 27.914062 24.035156 26.058594 25.230469 23.921875 25.917969 C 18.425781 27.691406 12.90625 27.597656 7.511719 25.652344 C 3.832031 24.328125 1.375 21.628906 0.539062 17.703125 C -0.617188 12.242188 -0.167969 7.199219 4.429688 3.253906 C 6.238281 1.703125 8.402344 0.847656 10.640625 0.507812 C 14.785156 -0.121094 18.984375 -0.234375 23.082031 0.9375 C 27.675781 2.25 30.550781 5.578125 31.03125 10.332031 "/>
<path style=" stroke:none;fill-rule:nonzero;fill:rgb(20.629883%,32.96051%,67.881775%);fill-opacity:1;" d="M 103.527344 43.785156 C 104.125 43.902344 104.496094 44.015625 104.871094 44.03125 C 105.65625 44.066406 106.449219 44.085938 107.234375 44.046875 C 109.210938 43.941406 109.84375 43.222656 109.953125 41.019531 C 110.0625 38.851562 109.199219 37.535156 107.433594 37.394531 C 106.1875 37.292969 104.929688 37.375 103.527344 37.375 C 103.527344 39.648438 103.527344 41.578125 103.527344 43.785156 Z M 112.011719 47.523438 C 113.289062 51.128906 114.582031 54.769531 115.929688 58.566406 C 114.441406 59.261719 112.960938 58.910156 111.53125 58.917969 C 110.542969 58.921875 110.277344 58.109375 110.019531 57.328125 C 109.335938 55.246094 108.648438 53.167969 107.933594 51.101562 C 107.007812 48.40625 106.996094 48.410156 103.480469 48.84375 C 103.480469 52.023438 103.480469 55.261719 103.480469 58.730469 C 101.617188 58.730469 100.09375 58.730469 98.570312 58.730469 C 98.042969 56.457031 97.96875 36.191406 98.503906 32.988281 C 102.117188 32.988281 105.773438 32.835938 109.414062 33.03125 C 112.996094 33.226562 114.515625 34.941406 114.824219 38.558594 C 114.890625 39.351562 114.882812 40.152344 114.878906 40.949219 C 114.847656 44.503906 114.617188 45.027344 112.011719 47.523438 "/>
<path style=" stroke:none;fill-rule:nonzero;fill:rgb(20.629883%,32.96051%,67.881775%);fill-opacity:1;" d="M 41.929688 7.226562 C 41.785156 7.25 41.640625 7.273438 41.496094 7.292969 C 40.855469 10.191406 40.210938 13.085938 39.480469 16.363281 C 41.140625 16.117188 42.390625 16.679688 43.726562 15.730469 C 43.125 12.878906 42.527344 10.054688 41.929688 7.226562 Z M 51.238281 26.296875 C 50.710938 26.449219 50.433594 26.605469 50.15625 26.597656 C 46.15625 26.503906 46.066406 27.402344 45.320312 22.953125 C 44.90625 20.472656 44.785156 20.492188 42.1875 20.457031 C 41.789062 20.453125 41.390625 20.445312 40.992188 20.453125 C 38.398438 20.480469 38.320312 20.46875 37.832031 22.941406 C 37.007812 27.109375 37.46875 26.585938 33 26.59375 C 32.726562 26.59375 32.449219 26.445312 31.992188 26.3125 C 32.917969 22.523438 33.832031 18.777344 34.753906 15.035156 C 35.773438 10.890625 36.78125 6.742188 37.824219 2.605469 C 38.375 0.425781 38.414062 0.410156 40.605469 0.375 C 42.082031 0.351562 43.558594 0.371094 45.261719 0.371094 C 47.28125 9.132812 49.253906 17.695312 51.238281 26.296875 "/>
<g clip-path="url(#clip1)" clip-rule="nonzero">
<path style=" stroke:none;fill-rule:nonzero;fill:rgb(20.629883%,32.96051%,67.881775%);fill-opacity:1;" d="M 164.636719 32.941406 C 164.636719 34.460938 164.636719 35.738281 164.636719 37.328125 C 161.664062 37.328125 158.722656 37.328125 155.539062 37.328125 C 155.394531 39.265625 155.234375 40.914062 155.15625 42.570312 C 155.113281 43.492188 155.8125 43.734375 156.5625 43.742188 C 158.355469 43.761719 160.152344 43.78125 161.941406 43.71875 C 164.308594 43.640625 164.316406 43.605469 164.355469 45.839844 C 164.363281 46.425781 164.296875 47.019531 164.246094 47.960938 C 163.160156 48.011719 162.113281 48.089844 161.066406 48.109375 C 159.671875 48.136719 158.277344 48.140625 156.882812 48.113281 C 155.652344 48.089844 155.046875 48.519531 155.15625 49.878906 C 155.269531 51.253906 155.183594 52.644531 155.183594 54.226562 C 158.347656 55.113281 161.554688 54.203125 164.804688 54.832031 C 164.804688 56.121094 164.804688 57.355469 164.804688 58.78125 C 159.964844 58.78125 155.234375 58.78125 150.351562 58.78125 C 150.265625 58.152344 150.121094 57.585938 150.121094 57.015625 C 150.105469 49.742188 150.097656 42.46875 150.117188 35.195312 C 150.125 32.832031 150.164062 32.898438 152.414062 32.925781 C 156.394531 32.976562 160.371094 32.941406 164.636719 32.941406 "/>
</g>
<path style=" stroke:none;fill-rule:nonzero;fill:rgb(20.629883%,32.96051%,67.881775%);fill-opacity:1;" d="M 52.839844 33.167969 C 54.171875 39.09375 55.542969 45.171875 57.023438 51.746094 C 57.453125 50.769531 57.796875 50.234375 57.929688 49.652344 C 58.988281 45.105469 60 40.546875 61.042969 35.996094 C 61.742188 32.941406 61.753906 32.941406 64.996094 33.003906 C 65.480469 33.015625 65.964844 33.078125 66.75 33.144531 C 66.535156 34.292969 66.402344 35.339844 66.144531 36.355469 C 64.441406 43.097656 62.710938 49.832031 60.980469 56.570312 C 60.375 58.925781 60.363281 58.976562 58.039062 58.960938 C 53.179688 58.9375 54.046875 59.5 52.925781 55.144531 C 51.242188 48.605469 49.636719 42.042969 48.011719 35.484375 C 47.84375 34.816406 47.761719 34.121094 47.589844 33.167969 C 49.316406 33.167969 50.945312 33.167969 52.839844 33.167969 "/>
</g>
</svg>

<svg xmlns="http://www.w3.org/2000/svg" width="219.747" height="59pt" viewBox="0 0 164.81 59"><defs><clipPath id="a"><path d="M150 32h14.809v27H150Zm0 0"/></clipPath></defs><path d="M59.305 11.45c4.629 0 9.07.085 13.508-.04 1.914-.055 2.496-.933 2.582-2.937.109-2.645-.696-3.703-3.356-3.817-3.367-.136-6.742-.058-10.117-.043-.86.004-1.719.121-2.617.188zm-.024 10.902c5.117 0 10.063.074 15.004-.036 1.86-.043 2.485-1.234 2.38-3.73-.095-2.2-.54-2.82-2.556-2.848-4.671-.058-9.347.008-14.02.047-.257.004-.515.235-.808.375zM54 26.613V.605c.844-.082 1.602-.218 2.363-.222C61.832.363 67.297.348 72.766.379c6.05.035 8.402 2.8 7.23 8.687-.27 1.36-1.16 2.594-1.789 3.93 3.145 2.164 4.371 6.961 2.543 10.598-1.113 2.222-3.031 3.008-5.395 3.008-4.87 0-9.742.007-14.613.011zM124.434 54.578c3.996 0 7.664.016 11.328-.016.582-.007 1.164-.238 1.742-.374 2.351-.543 4.012-1.907 4.351-4.333.297-2.144.512-4.363.297-6.5-.363-3.578-2.129-5.52-5.691-5.82-3.922-.328-7.895-.074-12.027-.074zm-5.278 4.395V33.508c.313-.192.473-.38.637-.38 6.066-.015 12.144-.155 18.207.04 4.465.148 8.855 2.98 9.16 9.152.121 2.465.156 4.957-.05 7.41-.454 5.344-3.95 8.825-9.301 9.102-4.473.23-8.961.113-13.442.137-1.668.011-3.34.004-5.21.004M99.48 22.746c.012-.082.028-.164.04-.246.398 0 .793.012 1.19 0 6.634-.191 9.802-3.695 9.317-10.297-.257-3.535-2.316-6.332-5.785-7.058-2.484-.524-5.16-.832-7.648-.493-6.442.871-8.992 5.254-7.61 11.618.625 2.875 2.493 4.734 5.262 5.539 1.695.492 3.484.636 5.234.937m-.558 4.59c-1.965-.379-4.465-.61-6.805-1.348-6.863-2.168-9.047-7.457-8.683-13.328C83.906 5.078 88.477.922 96.102.172c3.207-.317 6.343-.223 9.453.516 7.55 1.785 10.476 7.562 9.61 14.87-.65 5.43-3.255 9.962-11.282 11.114-1.473.21-2.95.394-4.961.664M93.656 43.766v4.191c-6.172.43-12.398-.094-18.797.3v6.235c6.465.309 12.895-.035 19.48.207v4.09H69.52c-.226-8.539-.066-17.039-.093-25.707h24.777v4.184H75.13c-.848 2.175-.348 4.12-.473 6.398 3.367.195 6.528.074 9.676.098 3.055.02 6.113.004 9.324.004M31.031 10.332c-.98.055-1.758.07-2.531.148-1.512.16-2.547-.175-3.234-1.796-.727-1.707-2.348-2.684-4.13-3.211-3.41-1.012-6.863-1.145-10.273-.078-3.758 1.175-5.457 3.718-5.5 7.906-.043 4.449 1.563 7.082 5.332 8.351 3.485 1.176 7.051 1.133 10.586.153 1.797-.5 3.399-1.508 4.09-3.23.621-1.56 1.59-1.845 2.996-1.72.781.07 1.567.094 2.512.145.535 2.152-.621 3.703-1.668 5.195-1.297 1.84-3.152 3.035-5.29 3.723-5.495 1.773-11.015 1.68-16.41-.266C3.833 24.328 1.376 21.63.54 17.703-.617 12.243-.168 7.2 4.43 3.253 6.24 1.704 8.403.849 10.642.509c4.144-.63 8.343-.742 12.441.43 4.594 1.312 7.469 4.64 7.95 9.394M103.527 43.785c.598.117.97.23 1.344.246a25 25 0 0 0 2.363.016c1.977-.106 2.61-.824 2.72-3.027.109-2.168-.755-3.485-2.52-3.625-1.246-.102-2.504-.02-3.907-.02zm8.485 3.738c1.277 3.606 2.57 7.247 3.918 11.043-1.489.696-2.97.344-4.399.352-.988.004-1.254-.809-1.511-1.59a416 416 0 0 0-2.086-6.226c-.926-2.696-.938-2.692-4.454-2.258v9.886h-4.91c-.527-2.273-.601-22.539-.066-25.742 3.613 0 7.27-.152 10.91.043 3.582.196 5.102 1.91 5.41 5.528.067.793.059 1.593.055 2.39-.031 3.555-.262 4.078-2.867 6.574M41.93 7.227q-.218.035-.434.066c-.64 2.898-1.285 5.793-2.016 9.07 1.66-.246 2.91.317 4.247-.633zm9.308 19.07c-.527.152-.804.308-1.082.3-4-.093-4.09.805-4.836-3.644-.414-2.48-.535-2.46-3.133-2.496-.398-.004-.796-.012-1.195-.004-2.594.027-2.672.016-3.16 2.488-.824 4.168-.363 3.645-4.832 3.653-.273 0-.55-.149-1.008-.282.926-3.789 1.84-7.535 2.762-11.277 1.02-4.144 2.027-8.293 3.07-12.43.551-2.18.59-2.195 2.781-2.23C42.082.352 43.56.371 45.262.371c2.02 8.762 3.992 17.324 5.976 25.926" style="stroke:none;fill-rule:nonzero;fill:#3554ad;fill-opacity:1"/><g clip-path="url(#a)"><path d="M164.637 32.941v4.387h-9.098c-.144 1.938-.305 3.586-.383 5.242-.043.922.656 1.164 1.406 1.172 1.793.02 3.59.04 5.38-.023 2.367-.078 2.374-.114 2.413 2.12.008.587-.058 1.18-.109 2.122-1.086.05-2.133.129-3.18.148-1.394.028-2.789.032-4.183.004-1.23-.023-1.836.407-1.727 1.766.114 1.375.028 2.766.028 4.348 3.164.886 6.37-.024 9.62.605v3.95h-14.452c-.086-.63-.23-1.196-.23-1.766a4514 4514 0 0 1-.005-21.82c.008-2.364.047-2.298 2.297-2.27 3.98.05 7.957.015 12.223.015" style="stroke:none;fill-rule:nonzero;fill:#3554ad;fill-opacity:1"/></g><path d="M52.84 33.168c1.332 5.926 2.703 12.004 4.183 18.578.43-.976.774-1.512.907-2.094 1.058-4.547 2.07-9.105 3.113-13.656.7-3.055.71-3.055 3.953-2.992.484.012.969.074 1.754.14-.215 1.149-.348 2.196-.605 3.211-1.704 6.743-3.434 13.477-5.165 20.215-.605 2.356-.617 2.407-2.94 2.39-4.86-.023-3.993.54-5.114-3.815-1.684-6.54-3.29-13.102-4.914-19.66-.168-.669-.25-1.364-.422-2.317z" style="stroke:none;fill-rule:nonzero;fill:#3554ad;fill-opacity:1"/></svg>
